img/brand_visual_cloud2.svg

<svg width="114" height="50" viewBox="0 0 114 50" fill="none" xmlns="http://www.w3.org/2000/svg">
<g clip-path="url(#clip0)">
<path d="M78.3711 2.76082C72.57 0.19328 59.0141 -1.0821 46.1694 1.15821C40.9766 2.0644 34.1301 5.20251 31.0111 11.571C29.2973 15.1287 29.2973 19.7687 24.3873 19.6093C14.7131 19.2988 6.85548 21.0273 2.75956 26.4141C-3.55568 34.8048 1.80842 43.7241 10.4715 46.0986C24.7114 49.9267 39.5844 50.9561 54.2327 49.1277C60.8221 48.2886 67.343 46.9545 73.941 46.6105C80.539 46.2664 87.4027 46.988 94.0607 46.4007C100.719 45.8133 107.617 43.6486 111.987 38.6813C112.835 37.6297 113.433 36.4065 113.739 35.1003C114.044 33.7941 114.048 32.4378 113.752 31.1297C111.884 25.038 106.108 23.6955 97.0426 22.6383C94.5491 22.3446 90.2561 20.7336 90.3675 15.5985C90.4789 10.4635 85.0034 5.69756 78.3711 2.76082Z" fill="#D5E3F9"/>
</g>
<defs>
<clipPath id="clip0">
<rect width="114" height="50" fill="white"/>
</clipPath>
</defs>
</svg>

<svg xmlns="http://www.w3.org/2000/svg" width="114" height="50" fill="none" xmlns:v="https://vecta.io/nano"><g clip-path="url(#A)"><path d="M78.371 2.761C72.57.193 59.014-1.082 46.169 1.158c-5.193.906-12.039 4.044-15.158 10.413-1.714 3.558-1.714 8.198-6.624 8.038-9.674-.311-17.532 1.418-21.628 6.805-6.315 8.391-.951 17.31 7.712 19.684 14.24 3.828 29.113 4.858 43.761 3.029 6.589-.839 13.11-2.173 19.708-2.517s13.462.377 20.12-.21 13.556-2.752 17.926-7.719a8.96 8.96 0 0 0 1.752-3.581c.305-1.306.309-2.662.013-3.971-1.868-6.092-7.644-7.434-16.709-8.491-2.493-.294-6.786-1.905-6.675-7.04S85.003 5.698 78.371 2.761z" fill="#d5e3f9"/></g><defs><clipPath id="A"><path fill="#fff" d="M0 0h114v50H0z"/></clipPath></defs></svg>
